X:193
%%musicspace -10
T:The Barren Rocks of Aden
M:4/4
L:1/8
K:D
de | "D"f3gf3e | d2f2A3d | "A7"c2e2A2de | "D"f2A2"A7"d2e2 | "D"f3gf3e | d2f2A3d | "A7"c2e2A2fe | "D"d6 :|
fg | "D"a3fd3f | "Em"e2f2"A7"A2ef | "A7"g3ec3e | "D"d2f2A2fg | "D"a3fd3f | "Em"e2f2"A7"A2ef | g2e2c2e2 | "D"d4 defg |
"D"afdf afdf | "Em"e2f2"A7"A2ef | gece gece | "D"d2f2A2fg | afdf afdf | "Em"e2f2"A7"A2ef | g2e2c2e2 | "D"d6 |]

